assets/icons/clock.svg

<svg width="25" height="25" viewBox="0 0 25 25" fill="none" xmlns="http://www.w3.org/2000/svg">
<path d="M12.3333 22.4169C17.7166 22.4169 22.0832 18.0504 22.0832 12.6671C22.0832 7.28367 17.7166 2.91711 12.3333 2.91711C6.9499 2.91711 2.58334 7.28367 2.58334 12.6671C2.58334 18.0504 6.9499 22.4169 12.3333 22.4169ZM11.6368 7.09565C11.6368 6.71261 11.9502 6.39921 12.3333 6.39921C12.7163 6.39921 13.0297 6.71261 13.0297 7.09565V12.3328L16.2507 14.9095C16.5501 15.1498 16.5988 15.5885 16.3586 15.888C16.2936 15.9696 16.2109 16.0355 16.1169 16.0808C16.0228 16.126 15.9197 16.1493 15.8154 16.1492C15.6621 16.1492 15.5089 16.1003 15.3801 15.9959L11.898 13.2103C11.7343 13.0779 11.6369 12.8795 11.6369 12.6671L11.6368 7.09565Z" fill="white"/>
</svg>

<svg xmlns="http://www.w3.org/2000/svg" width="25" height="25" fill="none" viewBox="0 0 25 25"><path fill="#fff" d="M12.333 22.417c5.384 0 9.75-4.367 9.75-9.75s-4.366-9.75-9.75-9.75c-5.383 0-9.75 4.367-9.75 9.75s4.367 9.75 9.75 9.75m-.696-15.321c0-.383.313-.697.696-.697s.697.314.697.697v5.237l3.22 2.576a.697.697 0 0 1-.87 1.087l-3.482-2.786a.7.7 0 0 1-.261-.543z"/></svg>
